X:196
T: WIE DIE BLUEMLEIN DRAUSSEN ZITTERN
N: E0779
O: Europa, Mitteleuropa, Deutschland, Schwaben
R: Abschieds - Lied, Liebe
M: 3/4
L: 1/16
K: C
G,3A, | G,4E,4C3D | C4B,4
G,2G,2 | B,6A,2G,2F,2 | E,8
G,2G,2 | B,6A,2G,2F,2 | E,8
G,2G,2 | B,6A,2G,2F,2 | E,8z2
G,2 | G,2E2C6B,2 | A,2F2D6
C2 | B,3A,G,2G,2A,3G, | G,4E,4z2
G,2 | G,2E2C6B,2 | A,2F2D6
C2 | B,3A,G,2B,2E3D | C8

